X:1
T:Who Is the King of Glory?
T:Who Is the King of Glory?
T:Daniel Brink Towner
T:James Martin Gray, 1908
T:Public Domain Courtesy of the Cyber Hymnal™
T:Public Domain Courtesy of the Cyber Hymnal™
C:Daniel Brink Towner
Z:Public Domain
Z:Courtesy of the Cyber Hymnal™
%%score ( 1 2 ) ( 3 4 )
L:1/8
Q:1/4=100
M:4/4
K:C
V:1 treble 
V:2 treble 
V:3 bass 
V:4 bass 
V:1
 [EG] | [EG]3 [EG] [Gc]3 [Gc] | [Fd]2 [FB]2 [Ec]2 G>G | [FA]3 [FA] [^Fd]2 [FA]2 | %4
w: 1.~Lift|up your heads, ye|gates e- ter- nal, The|King of Glo- ry|
w: 2.~’Tis|He who this round|world hath found- ed, And|stab- lished it up-|
w: 3.~Who|shall ap- proach His|ho- ly mount- ain, Or|stand with- in His|
w: 4.~The|eye of faith e’en|now dis- cern- eth The|King up- on His|
 [GB]2 [Ac]2 [Bd]3 [Ad] | [^Ge]3 [Ge] [Ge]2 [GB]2 | [^Ge]2 [GB]2 [Ge]2 [Gd]2 | %7
w: en- ters in, As-|cend- ing to the|throne su- per- nal,|
w: on the flood; And|Sa- tan’s hosts He|hath con- found- ed,|
w: ho- ly place? E’en|he who bathed in|Cal- vary’s fount- ain,|
w: Fa- ther’s throne, And|waits the hour when|He re- turn- eth|
 c2 [Gd]>[Ge] [Gd]3 [Gc] | [GB]2 [^FA]2 G4 ||"^Refrain" [EG]2 [FA]>[FB] [Ec]2 [Fd]2 | %10
w: The con- quer- or of|death and sin.||
w: When on the cross He|shed His blood.|Who is the King of|
w: Hath been re- deemed by|Heav- en’s grace.||
w: To take the king- dom|for His own.||
 [FB]4 [FG]2 z2 | [Ec]>[Gc] [GB]>[FA] [EG]2 [EA]2 | [CE]3 [DF] [EG]2 [EG]2 | %13
w: |||
w: Glo- ry?|He who o- ver- came our|en- e- my; Who|
w: |||
w: |||
 [FA]2 [FA]2 [GB]2 [GB]2 | [Gc]2 [Gc]2 [G^c]2 [Gc]2 | [^Fd]>[Fe] [Fd]>[Fc] [FB]2 [FA]2 | %16
w: |||
w: took our place at|judg- ment bar, And|made His cross the vic- tor’s|
w: |||
w: |||
 G2 !>![Bf]4 [ce]>[Gd] | [Ec]2 [Ad]2 [GB]4 | [Gc]2 !>![Bf]4 [ce]>[Gd] | %19
w: |||
w: car; He is the|King of Glo-|ry! He is the|
w: |||
w: |||
 [Ec]2 [Ae]2 !fermata![Bg]4 | c4- c3 |] %21
w: ||
w: King of Glo-|ry! *|
w: ||
w: ||
V:2
 x | x8 | x6 G>G | x8 | x8 | x8 | x8 | (AE) x6 | x4 (G2 =F2) || x8 | x8 | x8 | x8 | x8 | x8 | x8 | %16
 G2 x6 | x8 | x8 | x8 | c4- c3 |] %21
V:3
 [C,C] | [C,C]3 [C,C] [E,C]3 [E,C] | [F,A,]2 [D,G,]2 [C,G,]2 [E,C]>[E,C] | %3
 [F,C]3 [F,C] [D,C]2 [D,D]2 | [G,D]2 [G,C]2 [G,B,]3 [F,B,] | [E,B,]3 [E,B,] [E,B,]2 [E,E]2 | %6
 [E,B,]2 [E,E]2 [E,B,]2 [E,E]2 | [A,C]2 [G,B,]>[G,C] [F,B,]3 [E,C] | %8
 [D,D]2 [D,C]2 !fermata![G,,G,B,]4 || [C,C]2 [F,C]>[D,G,] [C,G,]2 [F,A,]2 | G,4 [G,B,]2 z2 | %11
 [C,C]>[C,E] [C,D]>[C,C] [C,C]2 [C,C]2 | [C,G,]3 [C,G,] [C,C]2 [C,C]2 | %13
 [F,C]2 [F,C]2 [D,D]2 [D,D]2 | [C,E]2 [C,E]2 [A,,E]2 [A,,E]2 | %15
 [D,D]>[D,C] [D,B,]>[D,A,] [D,D]2 [D,C]2 | G,2 !>![G,D]4 [G,C]>[G,B,] | [A,C]2 [F,F]2 [G,F]4 | %18
 [CE]2 !>![G,D]4 [G,C]>[G,B,] | [A,C]2 [A,C]2 [G,F]4 | [CE]4- [CE]3 |] %21
V:4
 x | x8 | x8 | x8 | x8 | x8 | x8 | x8 | x8 || x8 | G,4 x4 | x8 | x8 | x8 | x8 | x8 | G,2 x6 | x8 | %18
 x8 | x8 | x7 |] %21

